X: 14110
T: Friends
R: waltz
M: 3/4
K: Dmajor
"D"D3 E "Bm"FA|"Em7"A2 G3 F|"A7"E2 D2 [C2F2]|"Bm"D3 E FA|
"G"B3 d cB|"F#m"B2 A3 F|"Em7"G2 A2 B2|"A7"c2 d2 e2|
"Bm"f2 f3 f|"F#m"f2 c3 A|"G"B3 c dB|"D"A2 F4|
"Em7"G3 FG E|"A7"D2 E2 [C2F2]|"D"(D6|D6):|
"Bm"d2 d3 e|"F#m"c2 A4|"G"B2 d3 c|"D"A6|
"Em7"G3 F GB|"A7"B2 A2 G2|"D"FG (A4|A6)|
"Bm"d2 f3 d|"F#m"c2 A4|"G"Bc d2 B2|"B7"A6|
"Em7"G3 F GE|"A7"D2 E2 [C2F2]|"D"(D6|D6):|

